icons/infinity-16.svg

<svg width="16" height="16" viewBox="0 0 16 16" xmlns="http://www.w3.org/2000/svg">
  <path fill-rule="evenodd" clip-rule="evenodd" d="M3.5 6C2.41421 6 1.5 6.91421 1.5 8C1.5 9.08579 2.41421 10 3.5 10C4.02518 10 4.622 9.75597 5.3251 9.27259C5.83442 8.92244 6.34985 8.48258 6.88624 8C6.34985 7.51742 5.83442 7.07756 5.3251 6.72741C4.622 6.24403 4.02518 6 3.5 6ZM8 6.98442C7.41042 6.45066 6.79611 5.91843 6.1749 5.49134C5.378 4.94347 4.47482 4.5 3.5 4.5C1.58579 4.5 0 6.08579 0 8C0 9.91421 1.58579 11.5 3.5 11.5C4.47482 11.5 5.378 11.0565 6.1749 10.5087C6.79611 10.0816 7.41042 9.54934 8 9.01558C8.58958 9.54934 9.20389 10.0816 9.8251 10.5087C10.622 11.0565 11.5252 11.5 12.5 11.5C14.4142 11.5 16 9.91421 16 8C16 6.08579 14.4142 4.5 12.5 4.5C11.5252 4.5 10.622 4.94347 9.8251 5.49134C9.20389 5.91843 8.58958 6.45066 8 6.98442ZM9.11376 8C9.65015 8.48258 10.1656 8.92244 10.6749 9.27259C11.378 9.75597 11.9748 10 12.5 10C13.5858 10 14.5 9.08579 14.5 8C14.5 6.91421 13.5858 6 12.5 6C11.9748 6 11.378 6.24403 10.6749 6.72741C10.1656 7.07756 9.65015 7.51742 9.11376 8Z"/>
</svg>

<svg xmlns="http://www.w3.org/2000/svg" width="16" height="16" viewBox="0 0 16 16"><path fill-rule="evenodd" d="M3.5 6c-1.086 0-2 .914-2 2 0 1.086.914 2 2 2 .525 0 1.122-.244 1.825-.727.51-.35 1.025-.79 1.561-1.273-.536-.483-1.052-.922-1.56-1.273C4.621 6.244 4.025 6 3.5 6zm4.5.984c-.59-.533-1.204-1.066-1.825-1.493-.797-.548-1.7-.991-2.675-.991C1.586 4.5 0 6.086 0 8s1.586 3.5 3.5 3.5c.975 0 1.878-.444 2.675-.991.621-.427 1.235-.96 1.825-1.493.59.533 1.204 1.066 1.825 1.493.797.547 1.7.991 2.675.991 1.914 0 3.5-1.586 3.5-3.5s-1.586-3.5-3.5-3.5c-.975 0-1.878.443-2.675.991-.621.427-1.235.96-1.825 1.493zM9.114 8c.536.483 1.052.922 1.56 1.273.704.483 1.3.727 1.826.727 1.086 0 2-.914 2-2 0-1.086-.914-2-2-2-.525 0-1.122.244-1.825.727-.51.35-1.025.79-1.561 1.273z"/></svg>
